X: 3
T: The Bush On The Hill
R: jig
M: 6/8
L: 1/8
K: Amaj
|: A,3 A,CE | EAA cea | fed ceB | cAF F3 |A,3 A,CE | EAA cea | fed ceB |[1 cAA A3 :|[2 cAA A2 E |||: Ace a3 | f3 ecA | dfd cec | B3 cA[AE] | Ace a3 | f3 ecA | dfd cec |[1 BAA A2 E :|[2 BAA A3 |]|: A,3 A,CE | EAA cea | fed cdB | cAF F3 |A,3 A,CE | EAA cea | fed cdB | cAA A3 :| ~


Tune 1305	Setting 1305

